assets/Melon/Flat/melon_flat.svg

<svg width="32" height="32" viewBox="0 0 32 32" fill="none" xmlns="http://www.w3.org/2000/svg">
<path d="M5.46255 1.06042C5.35784 0.804899 5.06582 0.68264 4.8103 0.787348C4.55478 0.892055 4.43252 1.18408 4.53723 1.4396C4.98011 2.52039 5.60361 3.23454 6.62161 3.42043C7.37644 3.55827 8.28084 3.38639 9.3676 3.01553L12.5356 10.9357C12.6382 11.1921 12.9292 11.3168 13.1856 11.2143C13.442 11.1117 13.5667 10.8207 13.4641 10.5643L10.3062 2.66954L12.3596 1.90555C12.7356 1.76489 13.6689 1.97077 14.2342 3.15263C14.3534 3.40174 14.6519 3.50709 14.901 3.38793C15.1502 3.26878 15.2555 2.97024 15.1363 2.72112C14.4317 1.24793 13.0351 0.58553 12.0105 0.968458L9.82554 1.78139L9.81777 1.78435C8.35411 2.35679 7.42985 2.55149 6.80125 2.4367C6.25467 2.33689 5.83922 1.97963 5.46255 1.06042Z" fill="#6D4534"/>
<path d="M28 18C28 24.6274 22.6274 30 16 30C9.37258 30 4 24.6274 4 18C4 11.3726 9.37258 6 16 6C22.6274 6 28 11.3726 28 18Z" fill="#BFCC82"/>
<path d="M22.9291 15.1299C19.8677 7.73889 15.4861 6.30664 15.4861 6.30664C15.4861 6.30664 20.7916 7.3562 23.853 14.7472C26.9145 22.1383 23.9051 26.632 23.9051 26.632C23.9051 26.632 25.9906 22.521 22.9291 15.1299Z" fill="#608842"/>
<path d="M15.538 18.1913C12.4765 10.8003 11.4077 6.91339 11.4077 6.91339C11.4077 6.91339 13.4004 10.4176 16.4619 17.8086C19.5233 25.1996 20.5921 29.0865 20.5921 29.0865C20.5921 29.0865 18.5994 25.5823 15.538 18.1913Z" fill="#608842"/>
<path d="M8.09493 9.36801C8.09493 9.36801 5.08552 13.8617 8.14699 21.2528C11.2085 28.6438 16.514 29.6934 16.514 29.6934C16.514 29.6934 12.1323 28.2611 9.07087 20.8701C6.0094 13.479 8.09493 9.36801 8.09493 9.36801Z" fill="#608842"/>
</svg>

<svg xmlns="http://www.w3.org/2000/svg" width="32" height="32" fill="none"><path fill="#6D4534" d="M5.463 1.06a.5.5 0 1 0-.926.38c.443 1.08 1.067 1.795 2.085 1.98.754.138 1.659-.034 2.746-.404l3.168 7.92a.5.5 0 0 0 .928-.372L10.306 2.67l2.054-.764c.376-.141 1.309.065 1.874 1.247a.5.5 0 0 0 .902-.432c-.704-1.473-2.1-2.135-3.125-1.753l-2.185.813-.008.003c-1.464.573-2.388.767-3.017.653-.546-.1-.962-.457-1.338-1.377Z"/><path fill="#BFCC82" d="M28 18c0 6.627-5.373 12-12 12S4 24.627 4 18 9.373 6 16 6s12 5.373 12 12Z"/><path fill="#608842" d="M22.93 15.13c-3.062-7.391-7.444-8.823-7.444-8.823s5.306 1.05 8.367 8.44c3.061 7.391.052 11.885.052 11.885s2.086-4.111-.976-11.502ZM15.538 18.191c-3.062-7.39-4.13-11.278-4.13-11.278s1.992 3.505 5.054 10.896c3.061 7.39 4.13 11.277 4.13 11.277s-1.993-3.504-5.054-10.895ZM8.095 9.368s-3.01 4.494.052 11.885c3.062 7.39 8.367 8.44 8.367 8.44s-4.382-1.432-7.443-8.823C6.009 13.48 8.095 9.368 8.095 9.368Z"/></svg>
